signal-cellular-outline.svg

<svg  viewBox="0 0 24 24" fill="currentColor"><path  d="M19.5,5.5V18.5H17.5V5.5H19.5M12.5,10.5V18.5H10.5V10.5H12.5M5.5,15.5V18.5H3.5V15.5H5.5M21,4H16V20H21V4M14,9H9V20H14V9M7,14H2V20H7V14Z"/></svg>

<svg fill="currentColor" viewBox="0 0 24 24"><path d="M19.5 5.5v13h-2v-13zm-7 5v8h-2v-8zm-7 5v3h-2v-3zM21 4h-5v16h5zm-7 5H9v11h5zm-7 5H2v6h5z"/></svg>
